**harm	**harte	**timestamp	**phrase	**leadinstrument	**kern
*M4/4	*M4/4	*	*	*	*
*c:	*c:	*	*	*	*c:
1r;	N	0	.	r	1r;
=1	=1	=1	=1	=1	=1
*>A_intro	*>A_intro	*>A_intro	*>A_intro	*>A_intro	*>A_intro
1r	N	0.348	newline	guitar	1r
=2	=2	=2	=2	=2	=2
1r	N	5.003	.	guitar	1r
=3	=3	=3	=3	=3	=3
1r	N	9.658	.	guitar	1r
=4	=4	=4	=4	=4	=4
1r	N	14.313	.	guitar	1r
=5	=5	=5	=5	=5	=5
1i	C:min	18.967	newline	guitar	1C 1e- 1g
=6	=6	=6	=6	=6	=6
*>B_verse	*>B_verse	*>B_verse	*>B_verse	*>B_verse	*>B_verse
1i	C:min	22.662	newline	voice	1C 1e- 1g
=7	=7	=7	=7	=7	=7
*M2/4	*M2/4	*M2/4	*M2/4	*M2/4	*M2/4
2i	C:min	26.292	.	voice	2C 2e- 2g
=8	=8	=8	=8	=8	=8
*M4/4	*M4/4	*M4/4	*M4/4	*M4/4	*M4/4
1V	G:maj	28.107	.	voice	1G 1b 1dd
=9	=9	=9	=9	=9	=9
*M2/4	*M2/4	*M2/4	*M2/4	*M2/4	*M2/4
2V	G:maj	31.736	.	voice	2G 2b 2dd
=10	=10	=10	=10	=10	=10
*M4/4	*M4/4	*M4/4	*M4/4	*M4/4	*M4/4
1i	C:min	33.551	newline	voice	1C 1e- 1g
=11	=11	=11	=11	=11	=11
*M2/4	*M2/4	*M2/4	*M2/4	*M2/4	*M2/4
2i	C:min	37.099	.	voice	2C 2e- 2g
=12	=12	=12	=12	=12	=12
*M4/4	*M4/4	*M4/4	*M4/4	*M4/4	*M4/4
1V	G:maj	38.873	.	voice	1G 1b 1dd
=13	=13	=13	=13	=13	=13
*M2/4	*M2/4	*M2/4	*M2/4	*M2/4	*M2/4
2V	G:maj	42.421	.	voice	2G 2b 2dd
=14	=14	=14	=14	=14	=14
*M4/4	*M4/4	*M4/4	*M4/4	*M4/4	*M4/4
1i	C:min	44.195	newline	voice	1C 1e- 1g
=15	=15	=15	=15	=15	=15
*>A_interlude	*>A_interlude	*>A_interlude	*>A_interlude	*>A_interlude	*>A_interlude
1-ii	C#:min	47.747	newline	guitar	1D- 1f- 1a-
=16	=16	=16	=16	=16	=16
1-ii	C#:min	51.3	.	guitar	1D- 1f- 1a-
=17	=17	=17	=17	=17	=17
1-ii	C#:min	54.854	.	guitar	1D- 1f- 1a-
=18	=18	=18	=18	=18	=18
1-ii	C#:min	58.408	.	guitar	1D- 1f- 1a-
=19	=19	=19	=19	=19	=19
1i	C:min	61.961	newline	guitar	1C 1e- 1g
=20	=20	=20	=20	=20	=20
*>B_verse	*>B_verse	*>B_verse	*>B_verse	*>B_verse	*>B_verse
1i	C:min	65.433	newline	voice	1C 1e- 1g
=21	=21	=21	=21	=21	=21
*M2/4	*M2/4	*M2/4	*M2/4	*M2/4	*M2/4
2i	C:min	68.989	.	voice	2C 2e- 2g
=22	=22	=22	=22	=22	=22
*M4/4	*M4/4	*M4/4	*M4/4	*M4/4	*M4/4
1V	G:maj	70.767	.	voice	1G 1b 1dd
=23	=23	=23	=23	=23	=23
*M2/4	*M2/4	*M2/4	*M2/4	*M2/4	*M2/4
2V	G:maj	74.323	.	voice	2G 2b 2dd
=24	=24	=24	=24	=24	=24
*M4/4	*M4/4	*M4/4	*M4/4	*M4/4	*M4/4
1i	C:min	76.101	newline	voice	1C 1e- 1g
=25	=25	=25	=25	=25	=25
*M2/4	*M2/4	*M2/4	*M2/4	*M2/4	*M2/4
2i	C:min	79.664	.	voice	2C 2e- 2g
=26	=26	=26	=26	=26	=26
*M4/4	*M4/4	*M4/4	*M4/4	*M4/4	*M4/4
1V	G:maj	81.445	.	voice	1G 1b 1dd
=27	=27	=27	=27	=27	=27
*M2/4	*M2/4	*M2/4	*M2/4	*M2/4	*M2/4
2V	G:maj	85.008	.	voice	2G 2b 2dd
=28	=28	=28	=28	=28	=28
*M4/4	*M4/4	*M4/4	*M4/4	*M4/4	*M4/4
1i	C:min	86.789	newline	voice	1C 1e- 1g
=29	=29	=29	=29	=29	=29
*>D_bridge	*>D_bridge	*>D_bridge	*>D_bridge	*>D_bridge	*>D_bridge
2-VI	A-:maj	90.406	newline	voice	2A-- 2cc- 2ee--
2-VII	B-:maj	92.162	.	voice	2B- 2dd 2ff
=30	=30	=30	=30	=30	=30
1i	C:min	93.919	.	voice	1C 1e- 1g
=31	=31	=31	=31	=31	=31
2v	G:sus4(b7)	97.432	.	voice	2G 2b- 2dd
2V7	G:7	99.189	.	voice	2G 2b 2dd 2ff
=32	=32	=32	=32	=32	=32
1i	C:min	100.945	.	voice	1C 1e- 1g
=33	=33	=33	=33	=33	=33
2-VI	A-:maj	104.459	newline	voice	2A-- 2cc- 2ee--
2-VII	B-:maj	106.22	.	voice	2B- 2dd 2ff
=34	=34	=34	=34	=34	=34
2i	C:min	107.981	.	voice	2C 2e- 2g
2id	C:min/b7	109.742	.	voice	2c 2e- 2g
=35	=35	=35	=35	=35	=35
1IV	F:maj6	111.503	.	voice	1F 1a 1cc
=36	=36	=36	=36	=36	=36
2v	G:sus4(b7)	115.024	.	voice	2G 2b- 2dd
2V7	G:7	116.785	.	voice	2G 2b 2dd 2ff
=37	=37	=37	=37	=37	=37
*>A_interlude	*>A_interlude	*>A_interlude	*>A_interlude	*>A_interlude	*>A_interlude
1i	C:min	118.546	newline	voice	1C 1e- 1g
=38	=38	=38	=38	=38	=38
1-ii	C#:min	122.091	.	voice	1D- 1f- 1a-
=39	=39	=39	=39	=39	=39
1-ii	C#:min	125.636	newline	guitar	1D- 1f- 1a-
=40	=40	=40	=40	=40	=40
1-ii	C#:min	129.173	.	guitar	1D- 1f- 1a-
=41	=41	=41	=41	=41	=41
1-ii	C#:min	132.71	.	guitar	1D- 1f- 1a-
=42	=42	=42	=42	=42	=42
1-ii	C#:min	136.248	.	guitar	1D- 1f- 1a-
=43	=43	=43	=43	=43	=43
1i	C:min	139.785	newline	guitar	1C 1e- 1g
=44	=44	=44	=44	=44	=44
*>B_verse	*>B_verse	*>B_verse	*>B_verse	*>B_verse	*>B_verse
1i	C:min	143.485	newline	voice	1C 1e- 1g
=45	=45	=45	=45	=45	=45
*M2/4	*M2/4	*M2/4	*M2/4	*M2/4	*M2/4
2i	C:min	147.069	.	voice	2C 2e- 2g
=46	=46	=46	=46	=46	=46
*M4/4	*M4/4	*M4/4	*M4/4	*M4/4	*M4/4
1V7	G:7	148.861	.	voice	1G 1b 1dd 1ff
=47	=47	=47	=47	=47	=47
*M2/4	*M2/4	*M2/4	*M2/4	*M2/4	*M2/4
2V7	G:7	152.445	.	voice	2G 2b 2dd 2ff
=48	=48	=48	=48	=48	=48
*M4/4	*M4/4	*M4/4	*M4/4	*M4/4	*M4/4
1i	C:min	154.237	newline	voice	1C 1e- 1g
=49	=49	=49	=49	=49	=49
*M2/4	*M2/4	*M2/4	*M2/4	*M2/4	*M2/4
2i	C:min	157.498	.	voice	2C 2e- 2g
=50	=50	=50	=50	=50	=50
*M4/4	*M4/4	*M4/4	*M4/4	*M4/4	*M4/4
2v	G:sus4(b7)	159.129	.	voice	2G 2b- 2dd
2V7	G:7	160.759	.	voice	2G 2b 2dd 2ff
1r;	N	162.39	.	r	1r;
=51	=51	=51	=51	=51	=51
*>B_outro	*>B_outro	*>B_outro	*>B_outro	*>B_outro	*>B_outro
1i	C:min	165.651	newline	trumpet	1C 1e- 1g
=52	=52	=52	=52	=52	=52
1i	C:min	169.225	.	trumpet	1C 1e- 1g
=53	=53	=53	=53	=53	=53
1V7	G:7	172.798	.	trumpet	1G 1b 1dd 1ff
=54	=54	=54	=54	=54	=54
*M2/4	*M2/4	*M2/4	*M2/4	*M2/4	*M2/4
2V7	G:7	176.371	.	trumpet	2G 2b 2dd 2ff
=55	=55	=55	=55	=55	=55
*M4/4	*M4/4	*M4/4	*M4/4	*M4/4	*M4/4
1i	C:min	178.158	newline	fadeout	1C 1e- 1g
=56	=56	=56	=56	=56	=56
1i	C:min	181.303	.	fadeout	1C 1e- 1g
=57	=57	=57	=57	=57	=57
1V7	G:7	184.447	.	fadeout	1G 1b 1dd 1ff
=58	=58	=58	=58	=58	=58
2V7	G:7	187.592	.	fadeout	2G 2b 2dd 2ff
2i	C:min	189.164	.	fadeout	2C 2e- 2g
=59	=59	=59	=59	=59	=59
1i	C:min	190.736	newline	trumpet	1C 1e- 1g
1r;	N	196.374	.	r	1r;
1r;	N	197.773	.	r	1r;
*-	*-	*-	*-	*-	*-
!!!OTL: A Cowboys Work Is Never Done
!!!COC: Sonny & Cher
!!!BillboardChartDate: 1972/04/15
!!!BillboardPeak: 8
!!!BillboardWeeksOnChart: 13
!!!SampleTargetRank: 10
!!!SampleActualRank: 10
!!!SampleID#: 1147
!!!RDF**harmony: **recip + pitch class of root + harmonic quality
!!!RDF**harte: Chris Harte's syntax, used by MIREX
!!!RDF**phrase: newline = linebreak in original McGill transcription
!!!RDF**timestamp: McGill audio timestamp in seconds
!!!RDF**leadinstrument: original McGill primary instrumentation annotation
!!!RDT: 2017/01/12/
!!!ENC: Nathaniel Condit-Schultz
!!!EST: Awating manual error checking and editing.
